plex.svg

<svg fill="currentColor" viewBox="0 0 24 24"><path d="M4 2c-1.11 0-2 .89-2 2v16c0 1.11.89 2 2 2h16c1.11 0 2-.89 2-2V4c0-1.11-.89-2-2-2zm4.56 4h3.5l3.44 6-3.44 6h-3.5L12 12z"/></svg>

<svg  viewBox="0 0 24 24" fill="currentColor"><path  d="M4,2C2.89,2 2,2.89 2,4V20C2,21.11 2.89,22 4,22H20C21.11,22 22,21.11 22,20V4C22,2.89 21.11,2 20,2H4M8.56,6H12.06L15.5,12L12.06,18H8.56L12,12L8.56,6Z"/></svg>
